X: 004
M: C
L: 1/8
K: F
   c2 |\
f/g/a gf gedc | d/e/f ed cAGF |\
|: g2 |\
e/f/g gf fedc | fcfg ac'ac |\
d/e/f ed cAGF | d>ef2 f2 :|

